X:1
T:You Don't Bring Me Flowers
T:You don't bring me flowers
T:Neil Diamond
C:Neil Diamond
Z:All Rights Reserved
L:1/8
M:4/4
K:C
V:1 treble 
%%MIDI program 4
V:1
"F" z2 Ac c2 F2 |"C" G2 c6 |"Bb" z4 D_BBD |"F" C2 A6 |"Bb" z DD_B BB (3BAA |"F" A8 | %6
w: You don't bring me|flow- ers|you don't sing me|love songs|you hard- ly talk to me an- y-|more|
"Gm7" z2 AA (3AAA (3AAA |"C" A2 GF G4 | z2 CD EF G2- | G4 z4 |"F" z AAc c2 F2 |"C" G2 c6 | %12
w: when you come through the door at the|end of the day|I re- mem- ber when|_|you could- n't wait to|love me|
"Bb" z2 _BB B2 A2 |"F" _B2 A6 | z2 f2 e2 e2 |"Bb" dd c6 |"C" z2 dc d4- |"C7" d4 cd e2 | %18
w: used to hate to|leave me|now af- ter|lov- in me|late at night|_ when * its|
"F" f2 e2 d4- |"Bb" d6 dd |"C" dc c2 c4- |"C7" c6 de |"F" f4 e4 |"Am7" d2 c4 A2 |"Dm7" d4 c2 A2 | %25
w: good for you|_ and you're|feel- in all right|_ well you|just roll|o- ver and|turn out the|
"Bb" F8 |"F" z CAc c2 F2 |"C7" G2 c4 cE |"F" F8- | F8 | z AAc c2 F2 |"C" G2 c6 |"Bb" z DD_B B2 D2 | %33
w: light|and you don't bring me|flow- ers an- y-|more|_|It used to be so|nat'- ral|to talk a- bout for|
"F" C2 A6 |"Bb" z DD_B B2 B2 |"F" _BA A2 A2 AA |"Gm7" A2 AA A2 GA |"C7" A2 GF G4 |"F" z AAc c2 F2 | %39
w: ev- er|but used to be's don't|count an- y- more they just|lay on the floor till we|sweep them a- way|and ba- by I re-|
"C" G2 c6 |"Bb" z2 _BB B3 A |"F" _B2 A6 | z2 f2 f2 ee |"Bb" d6 dc |"C" d6 cc |"C7" c6 de | %46
w: mem- ber|all the things you|taught me|I learned how to|laugh and I|learned how to|cry well, I|
"F" f4 e2 e2 |"Bb" d6 dc |"C" d6 cc |"C7" c6 de |"F" f4 e2 e2 |"Am7" d6 cA |"Dm7" d4 c2 A2 | %53
w: learned how to|love e- ven|learned how to|lie so you'd|think I could|learn how to|tell you good-|
"Bbm" F8 |"F" z FAc c2 F2 |"C7" G2 c4 cE |"Dm" F8 |"C7" z4 d2 e2 |"F" f4 e2 e2 |"Am7" d4 c2 A2 | %60
w: bye|cause you don't bring me|flow- ers an- y-|more|well you'd|think I could|learn how to|
"Dm" d4 c2 F2 |"Bb" f8 |"F" z GAc c2 F2 |"C7" G2 c6 |"F" z2 Ac c2 F2 |"C7" G2 c6 |"F" z2 Ac c2 F2 | %67
w: tell you good-|bye|cause you don't say you|need me|you don't sing me|love songs|you don't bring me|
"C7" G2 c4 cE |"F" F8- | F8 |] %70
w: flow- ers an- y-|more.|_|

